X: 25877
T: Matt Daley's
R: slide
M: 12/8
K: Amajor
|:A2 F E2 F A2 B cBA|BAB c2 A B2 A F2 B|A2 F E2 F A2 B cBc|e2 c BcB A3 A3:|
a3 afe f2 g a2 f|e2 c BAB c2 A F3|a3 afe f2 g a2 f|e2 c BcB A3 A3|
a3 afe f2 g a2 f|e2 c BAB c2 A F2 B|A2 F E2 F A2 B cBc|e2 c BcB A3 A3||

